X:1
T:Holly Twig
M:6/8
L:1/8
K:D
 A| F2 F FFF| DDD D3| GGGG-F E| F2 A A2 F| GGG G2 A| BBA B2 F| A2 A A2 G|\
 F2 D D2 z| GFE E2 z| GFE E2 z| G A3/2 A/2 AAA| FDD D2 z|
